X: 112
T: Little Diamond
M: 2/4
L: 1/8
R: polka
Q: 275
K: D
B|A>B AF|DF Ad|A>B AF|GF EF/E/|
DE FG|AB cd|e>d ce|d2 d :|
e|fd ge|fd cB|Ad cd|fe e>g|
fd ge|fd cB|Ag ec|d2 d :|
